!!!SOCIAL_FUNCTION:	potlatch songs
!!!PDT:	1939
!!!OTL: No__15_Song_of_the_Kwikwatla_Dance.krn
!!!LANG: Non-Tone
!!!LING_GROUP: Wakashan
!!!REG: Pacific Northwest
**kern	**kern
*staff2	*staff1
=1-	=1-
*clefF4	*clefF4
*k[]	*k[]
*M2/4	*M2/4
2r	8.c\L
.	16c\Jk
.	8.c\L
.	16c\Jk
=2	=2
2r	4..c\
.	16c\
=3	=3
2r	8.A\L
.	16c\Jk
.	8c\
.	8r
=4	=4
2r	4..d\
.	16c\
=5	=5
2r	4.c\
.	8c\
=6	=6
2r	8.A\L
.	16c\Jk
.	8c\
.	8r
=7	=7
2r	4.c\
.	8A\
=8	=8
2r	4A\
.	8r
.	8A\
=9	=9
2r	8.G\L
.	16c\Jk
.	8.c\L
.	16A\Jk
=10	=10
2r	8.c\L
.	16A\Jk
.	12A\L
.	12G\
.	12A\J
=11	=11
2r	4A\
.	8r
.	8A\
=12	=12
2r	8.G\L
.	16A\Jk
.	8A\
.	8r
=13	=13
2r	4.A\
.	8A\
=14	=14
2r	4G\
.	8r
.	8G\
=15	=15
2r	8.G\L
.	16A\Jk
.	4A\
==:|!	==:|!
*-	*-
